svgs/themed_icon_calendar_13.svg

<svg height="192" width="192" xmlns="http://www.w3.org/2000/svg"><path d="M146 30H46c-8.837 0-16 7.163-16 16v100c0 8.837 7.163 16 16 16h75.373a16 16 0 0 0 11.313-4.686l24.628-24.628A16 16 0 0 0 162 121.373V46c0-8.837-7.163-16-16-16Z" stroke="#000" stroke-width="12" fill="none"/><path d="M64.852 120c-3.168 0-4.752-1.536-4.752-4.608 0-3.024 1.584-4.536 4.752-4.536h7.272V81.624l-5.256 3.168c-1.392.816-2.64 1.032-3.744.648s-1.944-1.104-2.52-2.16c-.576-1.056-.744-2.184-.504-3.384.24-1.248 1.032-2.304 2.376-3.168l10.008-6.048a17.78 17.78 0 0 1 3.024-1.512c1.056-.384 2.088-.576 3.096-.576 1.44 0 2.568.384 3.384 1.152.864.768 1.296 1.896 1.296 3.384v37.728h6.552c3.12 0 4.68 1.512 4.68 4.536 0 3.072-1.56 4.608-4.68 4.608H64.852Zm50.804.792c-2.544 0-5.136-.288-7.776-.864-2.592-.576-4.848-1.44-6.768-2.592-1.536-.816-2.496-1.824-2.88-3.024-.384-1.248-.336-2.4.144-3.456.528-1.056 1.368-1.8 2.52-2.232 1.152-.48 2.472-.36 3.96.36 1.872.912 3.648 1.56 5.328 1.944 1.68.384 3.36.576 5.04.576 5.856 0 8.784-2.184 8.784-6.552 0-4.032-2.736-6.048-8.208-6.048h-4.248c-1.584 0-2.808-.384-3.672-1.152-.816-.816-1.224-1.92-1.224-3.312 0-1.44.408-2.544 1.224-3.312.864-.816 2.088-1.224 3.672-1.224h3.168c2.4 0 4.296-.552 5.688-1.656 1.392-1.104 2.088-2.64 2.088-4.608 0-3.936-2.568-5.904-7.704-5.904-1.584 0-3.12.192-4.608.576-1.44.336-3.024.96-4.752 1.872-1.344.672-2.544.792-3.6.36-1.056-.432-1.848-1.176-2.376-2.232-.48-1.056-.576-2.16-.288-3.312.288-1.152 1.128-2.112 2.52-2.88 4.176-2.448 8.88-3.672 14.112-3.672 5.472 0 9.744 1.224 12.816 3.672 3.072 2.448 4.608 5.808 4.608 10.08 0 2.64-.672 4.968-2.016 6.984-1.344 2.016-3.216 3.48-5.616 4.392 2.88.816 5.112 2.328 6.696 4.536 1.632 2.16 2.448 4.776 2.448 7.848 0 4.608-1.704 8.232-5.112 10.872-3.408 2.64-8.064 3.96-13.968 3.96Z"/></svg>

<?xml version="1.0" encoding="UTF-8" standalone="no"?><svg xmlns:android="http://schemas.android.com/apk/res/android" height="192" width="192" xmlns="http://www.w3.org/2000/svg">
  <path d="M146,30H46C37.163,30 30,37.163 30,46V146C30,154.837 37.163,162 46,162H121.373C125.616,162 129.686,160.314 132.686,157.314L157.314,132.686C160.314,129.686 162,125.616 162,121.373V46C162,37.163 154.837,30 146,30Z" fill="#000000" fill-opacity="0.0" stroke="#000000" stroke-width="12"/>
  <path d="M64.852,120C61.684,120 60.1,118.464 60.1,115.392C60.1,112.368 61.684,110.856 64.852,110.856H72.124V81.624L66.868,84.792C65.476,85.608 64.228,85.824 63.124,85.44C62.02,85.056 61.18,84.336 60.604,83.28C60.028,82.224 59.86,81.096 60.1,79.896C60.34,78.648 61.132,77.592 62.476,76.728L72.484,70.68C73.492,70.056 74.5,69.552 75.508,69.168C76.564,68.784 77.596,68.592 78.604,68.592C80.044,68.592 81.172,68.976 81.988,69.744C82.852,70.512 83.284,71.64 83.284,73.128V110.856H89.836C92.956,110.856 94.516,112.368 94.516,115.392C94.516,118.464 92.956,120 89.836,120H64.852ZM115.656,120.792C113.112,120.792 110.52,120.504 107.88,119.928C105.288,119.352 103.032,118.488 101.112,117.336C99.576,116.52 98.616,115.512 98.232,114.312C97.848,113.064 97.896,111.912 98.376,110.856C98.904,109.8 99.744,109.056 100.896,108.624C102.048,108.144 103.368,108.264 104.856,108.984C106.728,109.896 108.504,110.544 110.184,110.928C111.864,111.312 113.544,111.504 115.224,111.504C121.08,111.504 124.008,109.32 124.008,104.952C124.008,100.92 121.272,98.904 115.8,98.904H111.552C109.968,98.904 108.744,98.52 107.88,97.752C107.064,96.936 106.656,95.832 106.656,94.44C106.656,93 107.064,91.896 107.88,91.128C108.744,90.312 109.968,89.904 111.552,89.904H114.72C117.12,89.904 119.016,89.352 120.408,88.248C121.8,87.144 122.496,85.608 122.496,83.64C122.496,79.704 119.928,77.736 114.792,77.736C113.208,77.736 111.672,77.928 110.184,78.312C108.744,78.648 107.16,79.272 105.432,80.184C104.088,80.856 102.888,80.976 101.832,80.544C100.776,80.112 99.984,79.368 99.456,78.312C98.976,77.256 98.88,76.152 99.168,75C99.456,73.848 100.296,72.888 101.688,72.12C105.864,69.672 110.568,68.448 115.8,68.448C121.272,68.448 125.544,69.672 128.616,72.12C131.688,74.568 133.224,77.928 133.224,82.2C133.224,84.84 132.552,87.168 131.208,89.184C129.864,91.2 127.992,92.664 125.592,93.576C128.472,94.392 130.704,95.904 132.288,98.112C133.92,100.272 134.736,102.888 134.736,105.96C134.736,110.568 133.032,114.192 129.624,116.832C126.216,119.472 121.56,120.792 115.656,120.792Z" fill="#000000"/>
</svg>
